!!!COM: Palestrina, Giovanni Perluigi da
!!!OPR: Missa Gabriel Archangelus
!!!OMD: Sanctus
!!!OTL: Pleni
**kern	**kern	**kern
*Itenor	*Icalto	*Icant
!Tenor	!Altus	!Cantus
*clefGv2	*clefG2	*clefG2
*k[b-]	*k[b-]	*k[b-]
*D:aeo	*D:aeo	*D:aeo
*M4/2	*M4/2	*M4/2
=44	=44	=44
0r	0r	1dd
.	.	2cc
.	.	2cc
=45	=45	=45
1d	0r	2.ff
.	.	4dd
2c	.	2ee
2c	.	[2a
=46	=46	=46
2.f	0r	2a]
.	.	2.dd
4d	.	.
2e	.	.
.	.	4cc
[2A	.	2cc
=47	=47	=47
2A]	0r	2a
1d	.	2.b-
.	.	4a
2c	.	2a
=48	=48	=48
2B-	1r	2g
2A	.	2f
4G	1g	1b-
4A	.	.
4B-	.	.
4c	.	.
=49	=49	=49
1d	2f	1a
.	2f	.
1G	2.b-	2r
.	.	2dd
.	4g	.
=50	=50	=50
0r	2a	2cc
.	1d	2.ff
.	.	4ee
.	[2g	4dd
.	.	4cc
=51	=51	=51
1d	4g]	4b-
.	4f	4a
.	1f	4a
.	.	8g
.	.	8f
2c	.	2g
2c	2e	[2cc
=52	=52	=52
2.f	1d	2cc]
.	.	2b
4d	.	.
2e	2A	1cc
[2A	[2a	.
=53	=53	=53
2A]	4a]	0r
.	4g	.
1d	4f	.
.	4e	.
.	2d	.
2c	2e	.
=54	=54	=54
1B-	2f	1dd
.	2g	.
1A	[1a	2cc
.	.	2cc
=55	=55	=55
2r	1a]	2.ff
2d	.	.
.	.	4dd
2c	1r	2ee
2c	.	[2a
=56	=56	=56
2.f	1r	2a]
.	.	1dd
4d	.	.
1e	1g	.
.	.	2cc
=57	=57	=57
1d	2f	2b-
.	2f	2.a
1G	2.b-	.
.	.	4g
.	.	[2g
.	4g	.
=58	=58	=58
2.d	2a	2g]
.	1d	2f
4c	.	.
2B-	.	1b-
2G	[2g	.
=59	=59	=59
1d	2g]	2.a
.	2f	.
.	.	4b-
2c	2e	2cc
2B-	2d	[2dd
=60	=60	=60
1A	1e	2dd]
.	.	2cc#
2r	1d	2.dd
[2d	.	.
.	.	4cc
=61	=61	=61
2d]	2r	2b-
2c	1g	2cc
2.d	.	1a
.	2f#	.
4c	.	.
=62	=62	=62
2B-	2g	0r
2A	2a	.
2G	2b-	.
2F	[2a	.
=63	=63	=63
1B-	4a]	2r
.	8g	.
.	8f	.
.	2g	1dd
1A	1a	.
.	.	2cc#
=64	=64	=64
2.B-	2r	2.dd
.	1g	.
4c	.	4cc
1d	.	2b-
.	2f	2a
=65	=65	=65
0r	2b-	2g
.	2.a	2f
.	.	1b-
.	4g	.
.	[2g	.
=66	=66	=66
2r	2g]	[0a
1d	4f	.
.	4e	.
.	2f	.
2c#	2e	.
=67	=67	=67
2.d	2r	1a]
.	2a	.
4c	.	.
2B-	2g	2r
2A	[2a	[2cc
=68	=68	=68
1d	2a]	2cc]
.	4g	2b
.	4f	.
2c	2e	2.cc
2F	[2f	.
.	.	4b-
=69	=69	=69
1c	2f]	2a
.	2e	2g
1r	2a	2f
.	[2g	2e
=70	=70	=70
1r	4g]	1a
.	4f	.
.	1f	.
[1c	.	[1g
.	4e	.
.	4d	.
=71	=71	=71
2c]	4e	1g]
.	4c	.
2B	2d	.
2.c	1e	2r
.	.	[2cc
4B-	.	.
=72	=72	=72
2A	1r	2cc]
2G	.	2b
2A	2r	2.cc
2F	[2f	.
.	.	4b-
=73	=73	=73
1c	2f]	2a
.	2e	2g
1F	2.f	2a
.	.	[2ff
.	4e	.
=74	=74	=74
0r	2d	2ff]
.	2c	2ee
.	2B-	2dd
.	2A	4cc
.	.	4b-
=75	=75	=75
2r	1d	2a
1f	.	2f
.	1c	1g
2e	.	.
=76	=76	=76
2.f	1r	0a
4e	.	.
2d	2r	.
2c	[2a	.
=77	=77	=77
1B-	2a]	2r
.	2g	1dd
1A	2.a	.
.	.	2cc#
.	4g	.
=78	=78	=78
2B-	2f	2dd
2c	2e	2ee
2d	2d	2ff
2A	2c	[2ee
=79	=79	=79
1d	1f	4ee]
.	.	4dd
.	.	1dd
1A	1e	.
.	.	2cc#
=80	=80	=80
[0d	[0d	[0dd
=81	=81	=81
0d]	0d]	0dd]
*-	*-	*-
!!!CDT: 1525/^1526/-1594/2/2
!!!OCY: Italia
!!!AGN: Mass (Parody)
!!!AST: renaissance, vocal
!!!ASW: Motet 1532 (Verdelot)
!!!PWK: Masses, Book I
!!!RNB: Cadence finals: A,F
!!!YOR: Le Opere Complete, v. 1, p. 93
!!!YOO: Rome, Italy: Fratelli Scalera
!!!END: 1992//
!!!EED: John Miller
!!!YEC: Copyright 2000, John Miller
!!!YEN: United States of America
!!!YEM: Rights to all derivative electronic formats reserved.
!!!YEM: Refer to licensing agreement for further details.
!!!YEM: This file must be accompanied by the licensing agreement.
!!!YEM: A copy of the licensing agreement may be found at http://www.music-cog.ohio-state.edu/HumdrumDatabases/Palestrina/license.txt
!!!EMD: converted to Humdrum by Bret Aarden
